src/parts/tops/LongHairMiaWallace.svg

<svg>
  <g
    id="Top"
    strokeWidth="1"
    fillRule="evenodd"
  >
    <defs>
      <rect
        id="LongHairMiaWallace-path1"
        x="0"
        y="0"
        width="264"
        height="280"
      />
      <path
        id="LongHairMiaWallace-path2"
        d="M148.859344,69 C148.952588,70.3212062 149,71.6550662 149,73 L149,111 C149,133.339168 135.919579,152.623239 117,161.610951 L117,170.317435 C135.145605,171.815797 152.721153,174.335027 163.000169,177 C172.952646,163.439362 185.884594,150.800081 186.000169,126 C186.085192,107.014914 158.324059,30.4276364 146.000169,15 C137.861928,4.81215989 117.30504,1.44935656 93.0001685,1 C68.6952966,0.550643437 48.9231015,6.50878211 41,16 C30.3189583,28.7950013 -0.0850232975,107.014914 4.92293245e-13,126 C0.115574613,150.800081 13.047523,163.439362 23,177 C33.2789946,174.335033 50.8544902,171.815807 69,170.317444 L69,161.610951 C50.0804213,152.623239 37,133.339168 37,111 L37,73 L37,73 C37,71.6550662 37.0474121,70.3212062 37.1406562,69 L65.3735517,69 L69.2529753,47.5561285 L72.058097,69 L148.859344,69 Z"
      />
    </defs>
    <mask
      id="LongHairMiaWallace-mask1"
      fill="white"
    >
      <use href="#LongHairMiaWallace-path1" />
    </mask>
    <g id="Mask" />
    <g
      id="Top/Long-Hair/Mia-Wallace"
      mask="url('#LongHairMiaWallace-mask1')"
    >
      <g transform="translate(-1.000000, 0.000000)">
        <path
          id="Shadow"
          d="M69.0330562,76.212888 C81.9708809,43.1292208 95.6458945,26.5873873 110.058097,26.5873873 C110.596882,26.5873873 139.311316,26.3494141 158.112657,26.226792 C178.767149,35.5853581 193,55.3036503 193,78.114622 L193,93 L110.058097,93 L107.252975,69.820435 L103.373552,93 L69,93 L69,78.114622 C69,77.478246 69.0110772,76.844277 69.0330621,76.2128728 L69.0330562,76.212888 Z"
          opacity="0.16"
          fill="#000000"
          fillRule="evenodd"
        />
        <g
          id="Hair"
          strokeWidth="1"
          fill="none"
          fillRule="evenodd"
          transform="translate(40.000000, 19.000000)"
        >
          <mask
            id="LongHairMiaWallace-mask2"
            fill="white"
          >
            <use href="#LongHairMiaWallace-path2" />
          </mask>
          <use
            class="CustomColor"
            fill="var(--avataaar-hair-color)"
            href="#LongHairMiaWallace-path2"
          />
        </g>
      </g>
    </g>
  </g>
</svg>

<svg>
  <g id="Top">
    <defs>
      <path id="LongHairMiaWallace-path1" d="M0 0h264v280H0z"/>
      <path id="LongHairMiaWallace-path2" d="M148.86 69c.093 1.321.14 2.655.14 4v38c0 22.34-13.08 41.623-32 50.611v8.706c18.146 1.499 35.721 4.018 46 6.683 9.953-13.56 22.885-26.2 23-51 .085-18.985-27.676-95.572-40-111-8.138-10.188-28.695-13.55-53-14C68.695.55 48.923 6.509 41 16 30.319 28.795-.085 107.015 0 126c.116 24.8 13.048 37.44 23 51 10.279-2.665 27.854-5.184 46-6.683v-8.706C50.08 152.623 37 133.339 37 111V73c0-1.345.047-2.679.14-4h28.234l3.879-21.444L72.058 69h76.801Z"/>
    </defs>
    <mask id="LongHairMiaWallace-mask1" fill="#fff">
      <use href="#LongHairMiaWallace-path1"/>
    </mask>
    <g id="Top/Long-Hair/Mia-Wallace" mask="url('#LongHairMiaWallace-mask1')">
      <g transform="translate(-1)">
        <path id="Shadow" fill="#000" d="M69.033 76.213c12.938-33.084 26.613-49.626 41.025-49.626.539 0 29.253-.238 48.055-.36C178.767 35.585 193 55.304 193 78.115V93h-82.942l-2.805-23.18-3.88 23.18H69V78.115c0-.637.011-1.27.033-1.902Z" opacity=".16"/>
        <g id="Hair" fill="none" transform="translate(40 19)">
          <mask id="LongHairMiaWallace-mask2" fill="#fff">
            <use href="#LongHairMiaWallace-path2"/>
          </mask>
          <use fill="var(--avataaar-hair-color)" class="CustomColor" href="#LongHairMiaWallace-path2"/>
        </g>
      </g>
    </g>
  </g>
</svg>
